icons/Anaconda-Light.svg

<svg width="256" height="256" viewBox="0 0 256 256" fill="none" xmlns="http://www.w3.org/2000/svg">
<rect width="256" height="256" rx="60" fill="#F4F2ED"/>
<path fill-rule="evenodd" clip-rule="evenodd" d="M128.217 28C124.394 28 120.571 28.2931 116.977 28.5862C122.325 32.222 127.366 36.2879 132.053 40.7437L135.876 44.2992L132.053 48.1223C128.68 51.2594 125.522 54.6184 122.597 58.177V58.4701C122.072 59.0326 121.578 59.624 121.119 60.2415C123.477 59.9976 125.847 59.8997 128.217 59.9484C146.089 60.1931 163.146 67.4644 175.697 80.1891C188.25 92.9138 195.286 110.069 195.286 127.942C195.286 145.816 188.25 162.97 175.697 175.696C163.146 188.42 146.089 195.691 128.217 195.936C115.678 196.009 103.375 192.522 92.7386 185.881C87.6368 186.471 82.5055 186.769 77.3698 186.773C74.9996 186.824 72.6286 186.722 70.2715 186.467C70.5453 194.48 71.2386 202.473 72.3488 210.413C88.7999 221.666 108.285 227.649 128.217 227.566C141.321 227.566 154.296 224.985 166.402 219.97C178.509 214.956 189.509 207.606 198.774 198.34C208.04 189.074 215.39 178.074 220.404 165.968C225.419 153.862 228 140.886 228 127.783C228 114.679 225.419 101.704 220.404 89.5977C215.39 77.4915 208.04 66.4915 198.774 57.2258C189.509 47.96 178.509 40.6101 166.402 35.5955C154.296 30.581 141.321 28 128.217 28ZM74.1191 43.9627C80.9446 39.5324 88.2891 35.9586 95.9871 33.3217C93.4723 37.9293 91.1967 42.6635 89.1694 47.5055C84.2228 46.044 79.1982 44.8612 74.1191 43.9627ZM68.5092 80.2438C72.4996 79.9774 76.2913 79.7244 80.3256 79.7244C76.1448 83.7231 72.5611 88.3025 69.6846 93.3219C68.6107 89.0455 67.8189 84.7034 67.3143 80.3233L68.5092 80.2438ZM64.9568 180.54V181.126L64.0647 180.858C56.4582 180.216 48.9332 178.829 41.5976 176.717L41.0114 176.424L41.3045 175.825C43.5735 168.753 46.3372 161.85 49.5752 155.167L49.8811 154.568L50.4672 154.861C55.4405 157.701 60.5717 160.254 65.8361 162.507L66.4351 162.801V163.387C65.488 169.056 64.9937 174.792 64.9568 180.54ZM64.9565 186.438V185.851H64.3576C57.8892 185.178 51.4703 184.093 45.1401 182.602L43.3688 182.308L44.2608 183.787C50.0508 192.488 57.1277 200.262 65.2496 206.84L66.4348 208.025V205.948C65.5317 199.482 65.038 192.965 64.9565 186.438ZM121.118 44.8437C119.054 46.9209 116.976 49.2784 114.912 51.6488C114.657 51.9418 113.141 53.7132 111.356 56.0963C107.225 54.1327 102.99 52.4424 98.793 50.7671L98.0646 50.4764C100.399 44.753 103.164 39.2149 106.335 33.9096C111.452 37.2922 116.386 40.9419 121.118 44.8437ZM47.2177 108.706L47.5108 109.292L48.0971 109C52.7506 105.675 57.5881 102.616 62.5866 99.8368L63.1728 99.5434V98.9447C61.6406 93.2306 60.5541 87.4062 59.9231 81.5241V80.9251H59.3369C51.9832 82.2664 44.76 84.245 37.7492 86.8382L37.163 87.1313L37.4561 87.7303C39.7948 95.113 43.0758 102.163 47.2177 108.706ZM45.4458 118.751L46.032 118.165L46.3888 119.006C49.6031 123.521 53.0574 127.86 56.7367 132.004L57.0298 132.298L56.7367 132.896C53.4928 137.246 50.5139 141.786 47.8161 146.494L47.523 147.08L46.9368 146.787C41.168 142.989 35.6356 138.844 30.3701 134.375L29.7711 133.776L30.3701 133.24C35.0214 128.036 40.0612 123.192 45.4458 118.751ZM85.347 181.426H87.1183L85.6401 180.24C80.2795 175.914 75.6831 170.719 72.0426 164.872V164.578L70.8701 163.98V164.872C70.1661 170.068 69.7704 175.302 69.6849 180.546V181.132H70.2711C71.4563 181.132 72.6383 181.206 73.8203 181.279C75.0023 181.353 76.1842 181.426 77.3694 181.426H85.347ZM86.2388 56.3838C84.5482 61.1196 83.1648 65.9595 82.097 70.8734C76.9618 70.8568 71.83 71.1419 66.7282 71.7272C66.3885 65.2244 66.4864 58.7062 67.0213 52.2166C73.5168 53.1535 79.9385 54.546 86.2388 56.3838ZM91.5527 70.5573C95.9752 67.8824 100.628 65.6092 105.456 63.7649C102.013 62.0385 98.4531 60.5566 94.8024 59.3301C93.6299 62.8728 92.4448 66.7214 91.5527 70.5573ZM44.5669 151.617H45.1403L44.8599 152.79C42.1945 158.179 39.8249 163.71 37.7617 169.357L37.1755 170.835L36.5893 169.357C32.4989 160.568 29.8031 151.195 28.599 141.576L28.3059 139.791L29.7842 140.976C34.5161 144.787 39.4509 148.34 44.5669 151.617ZM57.8585 56.9694C51.9156 62.8914 46.7511 69.5462 42.4896 76.7731C47.4731 75.3059 52.7578 74.1399 58.0324 72.9763L58.1516 72.95C57.8585 67.6104 57.8585 62.2962 57.8585 56.9694ZM60.8149 125.256V127.027L59.9738 125.536C57.7314 123.072 55.665 120.262 53.6354 117.503C52.9893 116.625 52.3463 115.751 51.7032 114.895L50.8111 114.297L51.4101 114.003C55.0802 111.446 58.7502 109.172 62.4203 106.897L62.8794 106.612L64.3576 105.733L63.7714 107.517C62.0232 113.277 61.0295 119.24 60.8149 125.256ZM61.6945 137.382L61.4014 135.61L60.5221 137.089C57.8587 140.912 55.1953 145.066 52.8759 149.208L52.57 149.794L53.169 150.087C57.1838 152.392 61.4878 154.408 65.7998 156.427L66.1675 156.6L67.6458 157.186L67.0596 155.708C64.385 149.894 62.5774 143.72 61.6945 137.382ZM42.7827 113.085L42.1837 113.379C37.3555 116.984 32.9898 121.169 29.1852 125.842L28 127.027V125.256C28.2237 115.715 29.8159 106.256 32.7279 97.1686L33.3269 95.3971L33.9131 96.8752C36.4792 102.235 39.3425 107.446 42.4896 112.487L42.7827 113.085Z" fill="#43B049"/>
</svg>

<svg xmlns="http://www.w3.org/2000/svg" width="256" height="256" fill="none" viewBox="0 0 256 256"><rect width="256" height="256" fill="#F4F2ED" rx="60"/><path fill="#43B049" fill-rule="evenodd" d="M128.22 28c-3.83 0-7.65.3-11.24.59a119 119 0 0 1 15.07 12.15l3.83 3.56-3.83 3.82q-5.06 4.72-9.45 10.06v.29q-.8.84-1.48 1.77a68 68 0 1 1 7.1 135.7 66.3 66.3 0 0 1-35.48-10.06q-7.66.9-15.37.9a55 55 0 0 1-7.1-.31q.42 12.02 2.08 23.94a98 98 0 0 0 55.87 17.16 99.77 99.77 0 1 0 0-199.57m-54.1 15.96c6.82-4.43 14.17-8 21.87-10.64q-3.78 6.9-6.82 14.19a138 138 0 0 0-15.05-3.55M68.5 80.24a174 174 0 0 1 11.82-.52c-4.19 4-7.77 8.58-10.65 13.6a101 101 0 0 1-2.37-13zm-3.55 100.3v.59l-.9-.27a117 117 0 0 1-22.46-4.14l-.59-.3.3-.6a158 158 0 0 1 8.27-20.65l.3-.6.59.3q7.46 4.25 15.37 7.64l.6.3v.58q-1.43 8.51-1.48 17.15m0 5.9v-.59h-.6a153 153 0 0 1-19.22-3.25l-1.77-.3.9 1.49a103 103 0 0 0 20.98 23.05l1.18 1.19v-2.08q-1.36-9.71-1.47-19.51m56.16-141.6a143 143 0 0 0-6.2 6.8c-.26.3-1.78 2.07-3.56 4.46a207 207 0 0 0-12.57-5.33l-.73-.3q3.51-8.6 8.27-16.56a175 175 0 0 1 14.79 10.93m-73.9 63.87.3.58.58-.29q6.98-5 14.49-9.16l.58-.3v-.6a114 114 0 0 1-3.25-17.42v-.6h-.58a129 129 0 0 0-21.6 5.92l-.58.3.3.59a90 90 0 0 0 9.76 20.98m-1.77 10.04.58-.58.36.84q4.82 6.77 10.35 13l.29.29-.3.6a135 135 0 0 0-8.91 13.6l-.3.58-.58-.3q-8.66-5.7-16.57-12.4l-.6-.6.6-.54q7-7.81 15.08-14.49m39.9 62.68h1.77l-1.48-1.19a62 62 0 0 1-13.6-15.37v-.3l-1.17-.59v.9q-1.05 7.79-1.19 15.67v.58h.6c1.18 0 2.36.08 3.54.15s2.36.15 3.55.15zm.89-125.05q-2.55 7.12-4.14 14.5-7.71-.03-15.37.85-.51-9.76.3-19.51a140 140 0 0 1 19.2 4.16m5.31 14.18a87 87 0 0 1 13.9-6.8 82 82 0 0 0-10.65-4.43c-1.17 3.54-2.36 7.4-3.25 11.23m-46.98 81.06h.57l-.28 1.17a165 165 0 0 0-7.1 16.57l-.58 1.47-.6-1.47a93 93 0 0 1-7.98-27.78l-.3-1.79 1.48 1.19q7.11 5.71 14.79 10.64m13.29-94.65a99 99 0 0 0-15.37 19.8 235 235 0 0 1 15.54-3.8l.12-.02c-.3-5.34-.3-10.65-.3-15.98m2.95 68.29v1.77l-.84-1.5c-2.24-2.46-4.3-5.27-6.33-8.03l-1.94-2.6-.89-.6.6-.3c3.67-2.55 7.34-4.83 11.01-7.1l.46-.29 1.48-.88-.59 1.79a70 70 0 0 0-2.96 17.74m.88 12.12-.29-1.77-.88 1.48a149 149 0 0 0-7.64 12.12l-.31.58.6.3c4.01 2.3 8.32 4.32 12.63 6.34l.37.17 1.48.59-.59-1.48a66 66 0 0 1-5.37-18.33m-18.9-24.3-.6.3a73 73 0 0 0-13 12.46L28 127.03v-1.77a100 100 0 0 1 4.73-28.1l.6-1.76.58 1.48a160 160 0 0 0 8.58 15.6z" clip-rule="evenodd"/></svg>
